X:381
T:Miss Maxwell
C:Wm. Shepherd
R:Slow March
M:C
L:1/16
%%printtempo 0
Q:70
K:D
((3GFE)|\
"D"D3F "A"A2Bc "D"d3e TdcBA| "G"B2(ef) gfed "A"{ed}c3d e2((3GFE)| "D"(D3F) "A"A2Bc "D"dcde TdcBA|
[1 "G"BcdB "A"c<eA>c "D"d2D2 D2:|2 "G"BcdB "A"ceag "D"f2d2 d2 || ((3gfe)| "D"d2a2 fgaf d2a>A GFED|
"G"BdeG "D"FAdf "A7"g2e2 e2((3gfe)| "D"d2a2 fgaf d2a2 bagf| "G"((3gab) ed "A"((3cde) ((3ABc) "D"d2D2 D2((3gfe)|
"D"d2a2 fgaf d2a>A GFED| "G"GBeG "D"FAdf "A7"g2e2 e2((3GFE)| "D"D3F "A"A2Bc "Bm"dcde TdcBA| "G"BcdB "A"c<eA>c "D"d2D2 D2|]
